X: 1
T: Da Brig
O: Shetland
S: handwritten MS
R: jig
Z: 2005 John Chambers <jc:trillian.mit.edu>
M: 6/8
L: 1/8
K: D
|: "D"[d3D3] [A3D3] | AFD D3 | d3 A2F | "G"[D2G,2]g fef \
|  "D"d3 A3 | AFD D2F | "A7"E2F "Em"G2A | "G"{Bc}B3 "A7"ABc :|
|: "D"d2e f2d | "A"c2e ecA | "D"d2e f2d | "G"g3 f2g \
|  "D"a2f "A7"g2e | "Bm"f2d "A"e2c | "D"d2A F2A | "G"{Bc}B3 "A7"ABc :|
